X:944030
T:The Sound of Silence
H: 
B: https://musescore.com/georgewu/ptxsoundofsilence, https://musescore.com/abchords321/scores/5449091
C:Simon and Garfunkel (Pentatonix / disturbed)
O:Transcribed by Kevin Fraser
Z:Kevin Fraser
Q:1/4=90
K:AMix
%K:AMix sound=A_b
%K:{g}B{d}BMix score=_{g}B{e}A %concert Pitch
M:4/4
L:1/8
U: R = ///
U: r = //
I:MIDI=program 110
I:linebreak $
%%MIDI gracedivider 100
V:M gstem=up stem=down name="Melody" sname=Melody
V:1 gstem=up stem=down name="Piper 1" sname=P1
V:2 gstem=up stem=down name="Piper 2" sname=P2 
V:3 gstem=up stem=down name="Piper 3" sname=P3 
V:4 gstem=up stem=down name="Piper 4" sname=P4 
V:BB gstem=up stem=down name="Brass Bass" sname="ABCD-C" transpose=-1  octave=-1 clef=bass
V:BC gstem=up stem=down name="Brass Chord" sname="ABCD-D" transpose=-1
V:BD gstem=up stem=down name="Brass Chord 2" sname="ABCD-B" transpose=-1
V:P gstem=up stem=down name="Piano" octave=-1
% %score { 2 }
[V:1]                [| z2                  {g}A{d}A {g}c{d}c {g}e{G}e | {gde}d8-                                                  | dG                   {g}G{d}G {g}B{d}B {g}d{e}d | {gcd}c8-                                  | cA                        {g}A{d}A {g}c{d}c {g}e{G}e | {g}A8-                              | {g}A8                                      |  {g}A8                                       |  $
[V:M]                [| z2                  {g}A{d}A {g}c{d}c {g}e{G}e | {gde}d8-                                                  | dG                   {g}G{d}G {g}B{d}B {g}d{e}d | {gcd}c8-                                  | cA                        {g}A{d}A {g}c{d}c {g}e{G}e | {g}f2{A}f{g}e-e4-                   | e2              {g}A{d}A {g}c{d}c {g}e{G}e |  {g}f2{A}f{g}e-e4-                           |  $
[V:2]                [| z2                  {g}A{d}A {g}c{d}c {g}e{G}e | {gde}d8-                                                  | dG                   {g}G{d}G {g}B{d}B {g}d{e}d | {gcd}c8-                                  | cA                        {g}A{d}A {g}c{d}c {g}e{G}e | {g}d2{c}d{e}c-c4-                   | {g}c8                                      |  {g}d2{c}d{e}c-c4                            |  $
[V:3]                [| z2                  {g}A{d}A {g}c{d}c {g}e{G}e | {gde}d8-                                                  | dG                   {g}G{d}G {g}B{d}B {g}d{e}d | {gcd}c8-                                  | cA                        {g}A{d}A {g}c{d}c {g}e{G}e | {g}f2{A}f{g}e-e4-                   | e2              {g}A{d}A {g}c{d}c {g}e{G}e |  {g}f2{A}f{g}e-e4                            |  $
[V:4]                [| z2                  {g}A{d}A {g}c{d}c {g}e{G}e | {gde}d8-                                                  | dG                   {g}G{d}G {g}B{d}B {g}d{e}d | {gcd}c8-                                  | cA                        {g}A{d}A {g}c{d}c {g}e{G}e | {g}f2{A}f{g}e-e4-                   | e2              {g}A{d}A {g}c{d}c {g}e{G}e |  {g}f2{A}f{g}e-e4-                           |  $
w:     |    Hel-lo   dark-ness my old | friend   | -I've come to  talk with you  a  | gain      | - be cause a   vision softly | cre-ep-ing        |   -  left its seeds while I was |  sle-ep-ing | 
[V:M]                 | [M:2/4]             e2 {g}A{d}A                | [M:4/4]                           {g}f{g}f- f2- f2 {g} fg | {g}a{g}a-            a2 {f}gf- f{gef}e-         | e4-                       e2 fe-          | {gcd}c8-                                             | [M:2/4]cA          {g}A{d}A         | [M:4/4]         e6- eG                     |  Af-                     f6-                 |] $
[V:1]                 | [M:2/4]             {AGAG}A4                   | [M:4/4]                           {gde}d4 {g}d2 G2        | {gAGAG}A8                                       | {AGAG}A4                  {gcd}c4         | {gef}e4                   e2 f2-                     | [M:2/4]            f4               | [M:4/4]         {g}c8                      |  Ac                      GB Ac Bd            |] $
[V:2]                 | [M:2/4]             {gcd}c4                    | [M:4/4]                           {AGAG}A4- A2 d2         | {gfg}f4-             {gde}d4                    | {gcd}c4                   {AGAG}A4        | {AGAG}A4                  G2 A2-                     | [M:2/4]            A4               | [M:4/4]         {g}A8                      |  c2                      B2 c2 d2            |] $
[V:3]                 | [M:2/4]             {gef}e4                    | [M:4/4]                           {gfg} f4- f2 fg         | {g}a{g}a-            a2 {f}gf- f{gef}e-         | e4-                       e2 fe-          | {gcd}c8-                                             | [M:2/4]cA          {g}A{d}A         | [M:4/4]         e6- eG                     |  Af-                     f6-                 |] $
[V:4]                 | [M:2/4]             e2 {g}A{d}A                | [M:4/4]                           {g}f{g}f- f2- f2 {g} fg | {g}a{g}a-            a2 {f}gf- f{gef}e-         | e4-                       e2 fe-          | {gcd}c8-                                             | [M:2/4]cA          {g}A{d}A         | [M:4/4]         e6- eG                     |  Af-                     f6-                 |] $
w:    |                                   - and the                    |        vision   - - -       that was                      | planted   in   my brain                         | - - still     re-                         | mains                                                | -     within the                    |        sound   of | silence     | $
[V:M]                [| A2                  {g}A{d}A {g}c{d}c {g}e{G}e | {gde}d8-                                                  | d2                   {g}G{d}G {g}B{d}B {g}d{e}d | {gcd}c8-                                  | cA                        {g}A{d}A {g}c{d}c {g}e{G}e | {g}f2{A}f{g}e-e4-                   | e2              {g}A{d}A {g}c{d}c {g}e{G}e |  {g}f2{A}f{g}e-e4-                           |  $
[V:1]                [| f2                  {g}A{d}A {g}c{d}c {g}e{G}e | f8-                                                       | d2                   {g}G{d}G {g}B{d}B {g}d{e}d | {gcd}c8-                                  | cA                        {g}A{d}A {g}c{d}c {g}e{G}e | {g}f2{A}f{g}e-e4-                   | e2              {g}A{d}A {g}c{d}c {g}e{G}e |  {g}f2{A}f{g}e-e4-                           |  $
[V:2]                [| f2                  {g}A{d}A {g}c{d}c {g}e{G}e | {gde}d8-                                                  | d2                   {g}G{d}G {g}B{d}B {g}d{e}d | {gcd}c8-                                  | cA                        {g}A{d}A {g}c{d}c {g}e{G}e | {g}f2{A}f{g}e-e4-                   | e2              {g}A{d}A {g}c{d}c {g}e{G}e |  {g}f2{A}f{g}e-e4-                           |  $
[V:3]                [| {gfg}f4             {AGAG}A4                   | {g}A4{g}B4                                                | {g}A8                                           | {g}A4                     G4              | {gef}e4                   G2 {g}A2-                  | {g}A8                               | c2              e2 {g}c{d}c c2             |  d2                      dc- c4              |  $
[V:4]                [| f2                  {g}A{d}A {g}c{d}c {g}e{G}e | f8-                                                       | f8                                              | {gef}e4                   G4              | A6                        {g}A2                      | d2{g}dc-           c4               | {g}A8                                      |  d2                      A6                  |  $
w:        In rest-less dreams I walked a-|lone     |     narrow streets of cobble  | stone   |  beneath the ha-lo    of a   |  street lamp     | I turned my collar to the     | cold and damp  | $
[V:M]                 | [M:2/4]e2           {g}A{d}A                   | [M:4/4]                           {g}f2 {g}ff- f2 {g}fg   | {ag}a{g}a-           a2 {f}gf- f{gef}e-         | e4-                       eA {g}fe        | {gcd}c8-                                             | [M:2/4]cA          {g}A{d}A         | [M:4/4]{gef}e6- eG                         |  {g}A                    f7                  |] $
[V:1]                 | [M:2/4]ed           c2                         | [M:4/4]                           {g}f2 {g}ff- f2 {g}fg   | {ag}a{g}a-           a2 {f}gf- f{gef}e-         | e4-                       eA {g}fe        | {gcd}c8-                                             | [M:2/4]cA          {g}A{d}A         | [M:4/4]{gef}e7  G                          |  {g}A                    f7                  |] $
[V:2]                 | [M:2/4]ed           {g}A{d}A                   | [M:4/4]                           {g}f2 {g}ff- f2 {g}fg   | {ag}a{g}a-           a2 {f}gf- f{gef}e-         | e4-                       eA {g}fe        | {gcd}c8-                                             | [M:2/4]cA          {g}A{d}A         | [M:4/4]{gef}e7  G                          |  {g}A                    f7                  |] $
[V:3]                 | [M:2/4]cB           A2                         | [M:4/4]                           {AGAG}A4- d2{g}de       | f2{g}f{g}f           {g}e{g}d- d{gcd}c-         | c6-                       {g}c2           | {g}f3G{g}A2{g}f2                                     | [M:2/4]{AGAG}A4                     | [M:4/4]{g}A8                               |  {g}c2                   {g}d2 {g}c2 {g}B2   |] $
[V:4]                 | [M:2/4]{AGAG}A4                                | [M:4/4]                           {gde}d4- {AGAG}A4       | {g}A8                                           | {g}A4                     {g}A4           | {g}A3B{g}A2{d}c2                                     | [M:2/4]{gef}e4                      | [M:4/4]{g}c8                               |  {g}Ac                   {g}Bd {g}Ac {g}GB   |] $
w:    |          When my  |        eyes  were stabbed by the|flash of  a  ne-on  light   | that  split the | night          |       and touched the| sound of    | silence             |] $
[V:M]                [| Af                  {g}f{g}f {g}A{d}A {g}B{e}A | {gBd}B8-                                                  | B{g}e                {A}e{G}e {g}G{d}G {g}B{d}B | {gAd}A8-                                  | A2                        {g}A{d}A {g}c{d}c {g}e{G}e | {g}f2{g}fe-e4-                      | e2              {g}A{d}A {g}c{d}c {g}e{G}e |  {g}f2{g}fe-e2           {g}A{d}A            |  $
[V:1]                [| Af                  {g}f{g}f {g}A{d}A {g}B{e}A | {g}a3/2{g}a3/2{f}g3/2{f}g3/2{f}g2                         | {g}e2{ag}a2{f}g2     e2                         | {ag}a3/2{f}g3/2f-fe       {g}f/g/a        | {g}a2{e}fG{g}A2{g}c2                                 | {g}d2{c}d{gcd}c-c4                  | {g}AG           {g}fe {g}A2 {d}c2          |  {gdc}d2{g}dc-c2{g}A{d}A                     |
w:     |          -     | In the Light I saw  | oh                        | may-be more          |                        |            |                          |                  |              
[V:2]                [| Af                  {g}f{g}f {g}A{d}A {g}B{e}A | {g}e3/2{A}e3/2{g}e3/2{A}e3/2{g}e2                         | {g}G2{d}A2{g}B2{e}G2                            | {g}f3/2{g}e3/2{g}c-cB     {g}c/e/f        | {gfg}f2{g}ce{gfg}f2{ag}a2                            | {g}a2{g}A{d}A-A4                    | {ag}ag          {fg}fe {gfg}f2{ag}a2       |  {gBd}B2{g}B{e}A-        a2{g}A{d}A          |
[V:3]                [| Af                  {g}f{g}f {g}A{d}A {g}B{e}A | {gBd}B8-                                                  | B{g}e                {A}e{G}e {g}G{d}G {g}B{d}B | {gAd}A8-                                  | A2                        {g}A{d}A {g}c{d}c {g}e{G}e | {g}f2{g}fe-e4-                      | e2              {g}A{d}A {g}c{d}c {g}e{G}e |  {g}f2{g}fe-e2           {g}A{d}A            |  $
[V:4]                [| Af                  {g}f{g}f {g}A{d}A {g}B{e}A | {gBd}B8-                                                  | B{g}e                {A}e{G}e {g}G{d}G {g}B{d}B | {gAd}A8-                                  | A2                        {g}A{d}A {g}c{d}c {g}e{G}e | {g}f2{g}fe-e4-                      | e2              {g}A{d}A {g}c{d}c {g}e{G}e |  {g}f2{g}fe-e2           {g}A{d}A            |  $
w:      And in the   naked     light I | saw       | ten thousand    people    maybe | more     |     people talking    without | speaking     |   People hearing without  | listening.    People      | $
[V:M] [M:2/4]ce- ef   | [M:4/4]{gfg}f4-f2e2                            | ff-                               f2 ed- dc-              | c4-                  cA fe-                     | ec-cB/A/-A4-                              | [M:2/4]{g}A{d}A           {g}A{d}A                   | [M:4/4]            {gef}e4 e2- eG   | Af-             f4- fc                     |  cA-                     A2 B2 c2            |] $
[V:1] [M:2/4]ce- ed-  | [M:4/4]d4-          d2 c2                      | {g}d{e}d3                         {g}A{d}A- {g}A{d}A-     | {g}A8                                           | {gef}e4f2c2                               | [M:2/4]                   {gcd}c4                    | [M:4/4]            {gde}d4- {gef}e4 | Ac              Ac Ac Ac                   |  f6                      gc                  |] $
[V:2] [M:2/4]ce- ea-  | [M:4/4]A4-          a2 A2                      | {g}A{d}A3                         gf- fe-                 | e8                                              | A3B                       c2 e2-          | [M:2/4]                   {gef}e4                    | [M:4/4]            B4- B4-          | f2              B2 a2 g2                   |  fc                      Bc Bc e2            |] $
[V:3] [M:2/4]ce- ef   | [M:4/4]{gfg}f4-f2e2                            | ff-                               f2 ed- dc-              | c4-                  cA fe-                     | ec-cB/A/-A4-                              | [M:2/4]{g}A{d}A           {g}A{d}A                   | [M:4/4]            {gef}e4 e2- eG   | Af-             f4- fc                     |  cA-                     A2 B2 c2            |] $
[V:4] [M:2/4]{g}A4    | [M:4/4]{gfg}f4-f2e2                            | ff-                               f2 ed- dc-              | c4-                  cA fe-                     | ec-cB/A/-A4-                              | [M:2/4]{g}A{d}A           {g}A{d}A                   | [M:4/4]            {gef}e4 e2 eG    | Af-             f4 g2                      |  cA-                     A2 B2 gc            |] $
w:     writing      |       songs   that | voices never share |  - and no one|   dared     |         disturb the    |          sound        of | silence      of |  si-lence |] $
[V:M]                [| f2                  {g}B{d}B {g}d{e}d f/e/d    | [K:d]                             e8-                     | e2                   {g}A{d}A {g}c{d}c {g}e{G}e | d8-                                       | d2                        {g}d{e}d {g}f{e}f {g}A{d}A | B2                 {g}B{e}A- A4-    | A2              dc {g}B{e}A ed             |  B2-                     B/{g}A/{g}A- A4-    |  $
w:        Fools said I you do not |      know          | - Thou-sand Peo-ple May-be    |    more      |-   Hear my words that I might | teach you         | - take my arms that I might | reach you      | $
[V:1]                [| f2                  {g}B{d}B {g}d{e}d f/e/d    | [K:d]                             e8-                     | e2                   {g}A{d}A {g}c{d}c {g}e{G}e | d8-                                       | d2                        {g}d{e}d {g}f{g}f {g}A{d}A | B2                 {g}B{e}A- A4-    | A2              dc {g}B{e}A ed             |  B2-                     B/{g}A/{g}A- A4-    |  $
[V:2]                [| d8                                             | [K:d]{g}A3/2{g}A3/2{g}A3          Ae                      | {g}e3/2{g}e3/2{g}e3  {g}e{G}e                   | {g}f3/2{g}f3/2{g}f3-{g}fe                 | {g}f2{g}fd                {g}fA d2                   | d2                 {g}d{e}d3-dA     | B2              A2 f2 d2                   |  d2                      {g}d{e}d- d4-       |  $
[V:3]                [| B8                                             | [K:d]{g}c3/2{g}c3/2{g}c3          {g}c{d}c                | {g}c3/2{g}c3/2{g}c3  {g}c{d}c                   | {g}d3/2{g}d3/2{g}d3       {g}dc           | d2                        {g}df {g}df {g}f2          | g2{a}gf3-fe/f/                      | g2              f2 d2 A2                   |  g2                      {g}gf- f4-          |  $
w:    [|                          |      do  Not Know             You| do     Not Know            | oh it grows           ah|oh                           | might teach you oh ooh| oh  | might reach you| $
[V:4]                [| G8                                             | [K:d]                             {gcd}c8-                | c6                   B2                         | d8                                        | B4                        d2 f2                      | G4                 {gde}d4          | d3A             d2 f2                      |  G4                      {gde}d4             |  $
[V:M]                 | [M:2/4]             A2 {g}d{e}d                | [M:4/4]                           {gBd}B6 c2              | {g}d{e}d3            cB {g}A{d}A-               | A2                        A/G/f e3 d/c/   | B2-                       Bd dd- dd/d/               | A6-                Ac               | dB-             B6-                        |] $
w:   |        -    but my  |        words      like | si-lent rain drops fell              |                   |  e-choed            in the | wells    of | si-lence    |] $
[V:1]                 | [M:2/4]             A2 {g}d{e}d                | [M:4/4]{gBd}B6                    c2                      | {g}d{e}d3            cB {g}A{d}A-               | A2                        A/G/f e3 d/c/   | B3d                       {g}d{e}d- d{e}d/d/         | A6-                Ac               | dB-             B6-                        |] $
[V:2]                 | [M:2/4]             d2 {g}d{e}d-               | [M:4/4]{gde}d4                    G2 A2                   | {g}B{d}B3            AG- Gf-                    | f2-f/e/d                  c3 B/A/         | {gfg}f4                   {g}d{e}d- d{e}d/d/         | e8                                  | df              Be Bf Af-                  |] $
[V:3]                 | [M:2/4]             f2 {g}d{e}d                | [M:4/4]{gBd}B6                    f2                      | {g}G{d}G3            fe- ed-                    | d3                        {g}A{d}A2-Af/e/ | {gde}d4                   {g}d{e}d- d{e}d/d/         | e8                                  | f2              e2 d2 c2-                  |] $
w:    | but my              |       words      like | si-lent rain drops fell              |                   |                   |             |                 |] $
[V:4]                 | [M:2/4]             d2 {g}d2                   | [M:4/4]                           G7 d                    | G8                                              | d6                        A2              | B3d                       {g}d{e}d- d{e}d/d/         | {g}c8                               | dB-             B6-                        |] $
[V:M]                [| B2                  {g}B{d}B {g}d{e}d f/e/d    | e8-                                                       | e2                   {g}A{d}A {g}c{d}c e2       | {g}f{g}f7-                                | f2                        {g}B{d}B {g}d{e}d {g}f{g}f | g2-gf-             f4-              | f2              dc {g}B{e}A f/e/d          |  g2                      gf- f2 f/e/d-       |  d2      {g}d{e}d f2 {g}A{d}A | $
w:      -   and the  peo-ple bowed and| prayed | -  to the   ne-on    god | they made | -  and the sign flashed out its| war-ning   | - and the words that it was| for-ming  | and the sign said the |  $
[V:1]                [| fe                  fA B2 d2-                  | d2                                A2 c2 A2-               | A2                   A2 c2 A2                   | B4                        d2 B2-          | B2                        ff {g}A{d}A {g}d{e}d-      | d2                 {g}d{e}d- d4-    | d2              dc {g}B{e}A f/e/d          |  d2                      {g}d{e}d- d2 d/B/A- |  A2      {g}d{e}d f2 {g}A{d}A | $
[V:2]                [| dc                  de f2 B2-                  | B2                                c2 e2 c2-               | c2                   c2 e2 c2                   | {g}d4                     f2 d2-          | d2                        {g}d{e}d {g}f{g}f {g}A{d}A | B2                 {g}B{e}A- A4-    | A2              dc {g}B{e}A f/e/d          |  B2                      {g}BA- A2 {g}A/G/f- |  f2      {g}d{e}d f2 {g}A{d}A | $
[V:3]                [| c2                  {g}B{d}B {g}d{e}d f/e/d    | e8-                                                       | e2                   {g}A{d}A {g}c{d}c e2       | f8-                                       | f2                        {g}B{d}B {g}d{e}d {g}f{g}f | g2                 gf- f4-          | f2              dc {g}B{e}A f/e/d          |  g2                      {a}gf- f2 {g}f/e/d- |  d2      {g}d{e}d f2 {g}A{d}A | $
[V:4]                [| dc                  {g}B{e}A fd Bf             | {g}A8-                                                    | {g}A8                                           | B8-                                       | {gBd}B6                   f2                         | G4                 {gde}d4          | z6              d2                         |  {g}A4                   {gde}d4-            |  {gde}d4 d2 d2                | $
[V:M]                 | d2                  {g}d{e}d {g}d{e}d f2       | {a}g/{a}g/{a}g-                   {a}g{a}g fe d2-         | {gde}d4-             {g}d{e}d {g}e/{g}e/d-      | Af-                       f6-             | f3d                       {g}d{e}d- {g}d{e}d/d/      | e8-                                 | ec              dB- B4                     |] $
w:   |  -         words of the pro-phet are |          written on the   sub-way walls | and            tenement        |halls         | and whispered  in the       | sound   | of  si-lence     |] $
[V:1]                 | B2                  {g}B{d}B {g}B{d}B c2       | {g}d/{g}d/{g}d-                   {g}d{e}d cB {g}A{d}A-   | A4-                  A{g}d {g}B/{g}B/A-         | Af-                       f6-             | f3d                       {g}d{e}d- {g}d{e}d/d/      | {g}A8-                              | Ac              dB- B4                     |] $
[V:2]                 | G2                  {g}G{d}G {g}G{d}G A2       | {g}B/{g}B/{g}B-                   {g}B{d}B AG {g}f{g}f-   | f4-                  d{g}d {g}B/{g}B/A-         | Af-                       f6-             | f3d                       {g}d{e}d- {g}d{e}d/d/      | e8-                                 | ec              dB- B4                     |] $
[V:3]                 | d2                  {g}d{e}d {g}d{e}d f2       | {a}g/{a}g/{a}g-                   {a}g{a}g fe {g}d{e}d-   | d4-                  d{g}d {g}e/{g}e/d-         | Af-                       f6-             | f3d                       {g}d{e}d- {g}d{e}d/d/      | {gde}d8-                            | dc              dB- B4                     |] $
[V:4]                 | G7                  d                          | G8                                                        | d6                   c2                         | B3c                       d2 c2           | B8                                                   | {g}A8-                              | Ac              dB- B4                     |] $
W: Use Gracenotes or Strikes to separate repeated notes that don't have gracenote separators.

